X:101
T: Die Todesbraut
N: Q2049M
O: Suedosteuropa, Jugoslawien, Slovenien
N: Slovenische Fassung der Ballade.
R: Ballade, Hochzeit, Unfall, Tod
M: 6/8
L: 1/8
K: G
d | B2de2d | dcBz2
d | B2de2d | dcBz
cA | G2Bd2B | BAGz
cA | G2Bd2B | A3G2

@@@ Tune index: 837
